X:19
T:Cemaes
M:C
L:1/4
Q:60
C:John Williams 1740-1821
R:Hymn
K:D
A || A A A F | B A/2G/2 F A | F G A d | c B A A | d A B A | G F E A | F D G F|
E2 D2 ||
